Adwaita++-Light/panel/24/mynotes-tray.svg

<svg height="24" width="24" xmlns="http://www.w3.org/2000/svg">
  <g fill="#444">
    <path d="m5.1425781 3.99995s-1.1425781-.0003219-1.1425781 1.1425781v13.7148439c0 1.143 1.1425781 1.142578 1.1425781 1.142578h7.8574219v-5.099609c0-1.037577.862814-1.900391 1.900391-1.900391h5.099609v-7.8574219c0-1.1429-1.142578-1.1425781-1.142578-1.1425781z"/>
    <path d="m20 14h-5.1c-.497 0-.9.403-.9.9v5.1z" opacity=".3"/>
  </g>
</svg>

<svg xmlns="http://www.w3.org/2000/svg" width="24" height="24" version="1.1">
 <defs>
  <style id="current-color-scheme" type="text/css">
   .ColorScheme-Text { color:#444444; } .ColorScheme-Highlight { color:#4285f4; }
  </style>
 </defs>
 <path style="fill:currentColor" class="ColorScheme-Text" d="M 5.1425781,3.99995 C 5.1425781,3.99995 4,3.9996281 4,5.1425281 V 18.857372 c 0,1.143 1.1425781,1.142578 1.1425781,1.142578 H 13 v -5.099609 c 0,-1.037577 0.862814,-1.900391 1.900391,-1.900391 H 20 V 5.1425281 C 20,3.9996281 18.857422,3.99995 18.857422,3.99995 Z"/>
 <path d="M 20,14 H 14.9 C 14.403,14 14,14.403 14,14.9 V 20 Z" style="opacity:0.3;fill:currentColor" class="ColorScheme-Text"/>
</svg>
